X:1
T:Mazurka
C:traditionell
R:mazurka
A:Schwaebische Trkei
%%textfont Helvetica-Narrow 10pt
%%begintext align
B:Deutsche Volkstaenze, Heft 44/45 - Deutsche Volkstaenze aus dem Donauraum", Herausgegeben von Karl Horak, Baerenreiter=Ausgabe 1277, 1961, s.15
N:im buch ganz in C
%%endtext 
F:http://simonwascher.info/
Z:abc transcription Simon Wascher
M:3/4
L:1/8
K:C
GG A2 G2 | e2 c2 z2 | e2 d2 c2 | c2 BA B2 |\
GG A2 G2 | f2 d2 z2 | G2 A2 B2 |1 cB cd e2 :|\
                               [2 c2 c2 z2 |
|:\
G2 cB cB | A2 dc dc | Bd g4 | ce g4 |\
G2 cB cB | A2 dc dc | Bd g2 B2 | c2 c2 "D.C."z2 :|
%%wordsfont Times-Italic 11pt
W:aus Simon Waschers TradArchiv
